icons/female_reproductive_system_fill.svg

<svg width="48" height="48" viewBox="0 0 48 48" fill="none" xmlns="http://www.w3.org/2000/svg">
<path d="M6.81625 12.724C6.01569 13.4525 5.76466 14.341 6.25587 15.1285C6.89203 16.1483 7.61731 17.0094 8.25956 17.6755C7.70794 17.7201 7.2197 17.912 6.85662 18.2619C6.71267 18.4007 6.59552 18.5574 6.50435 18.7285C5.86889 18.0365 5.17971 17.1821 4.55893 16.187C3.3573 14.2606 4.27545 12.3319 5.47019 11.2448C6.07806 10.6916 6.82974 10.2714 7.5956 10.0932C8.35213 9.91718 9.25847 9.95444 9.98283 10.5351C11.5622 11.8011 12.3679 11.9688 12.9007 12.0154C13.0004 12.0241 13.115 12.0265 13.2427 12.0293C13.807 12.0415 14.6269 12.0592 15.5401 12.6447L14.4605 14.3283C14.0515 14.0661 13.8586 14.0599 13.4139 14.0458C13.2354 14.0401 13.0164 14.0331 12.7265 14.0078C11.7076 13.9187 10.5383 13.5436 8.73192 12.0956C8.65047 12.0303 8.44855 11.9482 8.04887 12.0412C7.65852 12.132 7.20603 12.3693 6.81625 12.724Z" fill="black"/>
<path fill-rule="evenodd" clip-rule="evenodd" d="M12.895 20.1427C14.5753 21.6916 15.044 23.8084 13.9417 24.8708C12.8395 25.9331 10.5837 25.5388 8.90337 23.9899C7.22301 22.4411 6.75436 20.3243 7.85662 19.2619C8.95887 18.1995 11.2146 18.5939 12.895 20.1427ZM11.455 21.5307C12.0439 22.0735 12.3517 22.6573 12.447 23.0879C12.4999 23.3267 12.4809 23.4535 12.4638 23.5085C12.4059 23.5258 12.2717 23.5465 12.0173 23.502C11.5584 23.4218 10.9323 23.1448 10.3434 22.602C9.75448 22.0592 9.4467 21.4754 9.35136 21.0448C9.2985 20.806 9.31744 20.6791 9.33458 20.6242C9.39247 20.6068 9.52663 20.5861 9.78109 20.6306C10.24 20.7108 10.8661 20.9878 11.455 21.5307ZM12.449 23.5413C12.4485 23.5421 12.4484 23.5425 12.4485 23.5426C12.4488 23.5428 12.4508 23.5401 12.4538 23.5342C12.453 23.5352 12.4523 23.5361 12.4517 23.5369C12.4515 23.5372 12.4519 23.5367 12.4517 23.5369C12.4507 23.5385 12.4494 23.5405 12.449 23.5413ZM12.4908 23.4985C12.4964 23.4945 12.4995 23.493 12.4996 23.4933C12.4998 23.4936 12.4971 23.4956 12.4908 23.4985ZM9.34691 20.5953C9.34925 20.592 9.3501 20.5902 9.34988 20.5901C9.34959 20.5899 9.34754 20.5926 9.34458 20.5985C9.34548 20.5973 9.34625 20.5963 9.34691 20.5953ZM9.30752 20.6342C9.30199 20.6382 9.29889 20.6396 9.29872 20.6394C9.29854 20.6391 9.30131 20.6371 9.30752 20.6342Z" fill="black"/>
<path d="M41.7441 15.1285C42.2353 14.341 41.9843 13.4525 41.1837 12.724C40.794 12.3693 40.3415 12.132 39.9511 12.0412C39.5514 11.9482 39.3495 12.0303 39.2681 12.0956C37.4617 13.5436 36.2924 13.9187 35.2735 14.0078C34.9836 14.0331 34.7646 14.0401 34.5861 14.0458C34.1414 14.0599 33.9485 14.0661 33.5395 14.3283L32.4599 12.6447C33.3731 12.0592 34.193 12.0415 34.7573 12.0293C34.885 12.0265 34.9996 12.0241 35.0993 12.0154C35.6321 11.9688 36.4378 11.8011 38.0172 10.5351C38.7415 9.95444 39.6479 9.91718 40.4044 10.0932C41.1703 10.2714 41.9219 10.6916 42.5298 11.2448C43.7245 12.3319 44.6427 14.2606 43.4411 16.187C42.8072 17.2031 42.1021 18.0724 41.4556 18.7719C41.3615 18.5839 41.2369 18.4123 41.0809 18.2619C40.7305 17.9242 40.2635 17.7337 39.7354 17.6807C40.3789 17.0139 41.1063 16.151 41.7441 15.1285Z" fill="black"/>
<path fill-rule="evenodd" clip-rule="evenodd" d="M35.0425 20.1427C33.3622 21.6916 32.8935 23.8084 33.9958 24.8708C35.098 25.9331 37.3538 25.5388 39.0341 23.9899C40.7145 22.4411 41.1831 20.3243 40.0809 19.2619C38.9786 18.1995 36.7229 18.5939 35.0425 20.1427ZM36.4825 21.5307C35.8936 22.0735 35.5858 22.6573 35.4905 23.0879C35.4376 23.3267 35.4566 23.4535 35.4737 23.5085C35.5316 23.5258 35.6658 23.5465 35.9202 23.502C36.3791 23.4218 37.0052 23.1448 37.5941 22.602C38.183 22.0592 38.4908 21.4754 38.5861 21.0448C38.639 20.806 38.6201 20.6791 38.6029 20.6242C38.545 20.6068 38.4109 20.5861 38.1564 20.6306C37.6975 20.7108 37.0714 20.9878 36.4825 21.5307ZM35.4858 23.5369C35.4883 23.5405 35.4892 23.5425 35.489 23.5426C35.4887 23.5428 35.4867 23.5401 35.4837 23.5342C35.4845 23.5352 35.4852 23.5361 35.4858 23.5369ZM35.4423 23.4955L35.4467 23.4985L35.4437 23.497L35.4401 23.495C35.4385 23.4941 35.4378 23.4934 35.4379 23.4933M35.4423 23.4955L35.439 23.4936L35.4423 23.4955ZM38.5876 20.5901C38.5873 20.5902 38.5888 20.5932 38.5929 20.5985C38.59 20.5926 38.5879 20.5899 38.5876 20.5901ZM38.63 20.6342C38.6355 20.6382 38.6386 20.6396 38.6388 20.6394C38.639 20.6391 38.6362 20.6371 38.63 20.6342Z" fill="black"/>
<path fill-rule="evenodd" clip-rule="evenodd" d="M18.0117 12.4743C19.3354 11.5179 21.2977 11 24.0101 11C26.7081 11 28.6692 11.472 29.9922 12.3639C31.3718 13.294 31.9541 14.6111 31.9973 15.9881C32.0389 17.3115 31.5874 18.6587 30.9944 19.8088C30.3962 20.969 29.6085 22.0172 28.867 22.7623C28.4078 23.2238 28.0767 23.9896 27.8734 25.1008C27.6726 26.1986 27.6188 27.4992 27.6059 28.9091C27.6019 29.3513 27.6019 29.8076 27.602 30.2689V30.2699C27.6022 31.2428 27.6023 32.2383 27.564 33.1707C27.5074 34.5489 27.3648 35.9211 26.9703 37.0698C26.8958 37.2865 26.7402 37.6131 26.3948 37.824C26.0071 38.0609 25.6099 38.0175 25.3506 37.93C25.1151 37.8506 24.9272 37.717 24.8077 37.6229C24.6781 37.5208 24.556 37.4058 24.4541 37.3061C24.3716 37.2253 24.3013 37.1545 24.2379 37.0904C24.1457 36.9975 24.0679 36.919 23.9878 36.8458C23.8839 36.9278 23.7912 37.0092 23.6826 37.1046C23.5988 37.1781 23.5057 37.2599 23.3907 37.3566C23.1943 37.5219 22.8302 37.8249 22.4182 37.9435C22.1753 38.0134 21.8085 38.0511 21.437 37.8545C21.0752 37.6631 20.8911 37.3451 20.7977 37.0964C20.3721 35.9629 20.151 34.562 20.0124 33.1345C19.8997 31.9734 19.8369 30.7349 19.7765 29.5428L19.7764 29.5405C19.7622 29.2602 19.7481 28.9819 19.7335 28.7084C19.6558 27.2476 19.5641 25.9083 19.3746 24.8165C19.1757 23.6711 18.9034 23.0324 18.6347 22.7623C18.0278 22.1525 17.3518 21.1638 16.8408 20.0398C16.3298 18.9159 15.9385 17.5577 16.008 16.2127C16.0796 14.8288 16.6448 13.4618 18.0117 12.4743ZM23.8006 36.6943C23.7974 36.6927 23.7969 36.6922 23.7994 36.6936L23.8006 36.6943Z" fill="black"/>
</svg>

<svg
  xmlns="http://www.w3.org/2000/svg"
  width="24"
  height="24"
  viewBox="0 0 24 24"
  fill="none"
  stroke="currentColor"
  stroke-width="2"
  stroke-linecap="round"
  stroke-linejoin="round"
>
  <path d="M6.816 12.724c-.8.729-1.051 1.617-.56 2.405a15.6 15.6 0 0 0 2.004 2.547c-.552.044-1.04.236-1.403.586a1.9 1.9 0 0 0-.353.466 17.4 17.4 0 0 1-1.945-2.541c-1.202-1.926-.284-3.855.911-4.942.608-.553 1.36-.974 2.126-1.152.756-.176 1.662-.139 2.387.442 1.58 1.266 2.385 1.434 2.918 1.48.1.01.214.011.342.014.564.012 1.384.03 2.297.616l-1.08 1.683c-.409-.262-.601-.268-1.046-.282a12 12 0 0 1-.687-.038c-1.02-.09-2.189-.464-3.995-1.912-.082-.066-.283-.148-.683-.055-.39.091-.843.328-1.233.683" />
  <path
    fill-rule="evenodd"
    d="M12.895 20.143c1.68 1.549 2.149 3.665 1.047 4.728s-3.358.668-5.039-.881-2.149-3.666-1.046-4.728 3.358-.668 5.038.88m-1.44 1.388c.589.543.897 1.126.992 1.557.053.239.034.365.017.42-.058.018-.192.039-.447-.006-.459-.08-1.085-.357-1.674-.9s-.896-1.127-.992-1.557c-.053-.239-.034-.366-.016-.42.057-.018.192-.039.446.006.459.08 1.085.357 1.674.9m.994 2.01v.002l.005-.009-.002.003zm.042-.043q.007-.005.009-.005 0 0-.01.006m-3.144-2.903.003-.005-.005.009zm-.04.04-.008.004z"
    clip-rule="evenodd"
  />
  <path d="M41.744 15.129c.491-.788.24-1.676-.56-2.405-.39-.355-.842-.592-1.233-.683-.4-.093-.602-.01-.683.055-1.806 1.448-2.976 1.823-3.995 1.912-.29.025-.508.032-.687.038-.445.014-.637.02-1.047.282l-1.08-1.683c.914-.586 1.734-.604 2.298-.616q.193-.002.342-.014c.533-.046 1.339-.214 2.918-1.48.724-.58 1.63-.618 2.387-.442.766.178 1.518.599 2.126 1.152 1.194 1.087 2.113 3.016.911 4.942a17.4 17.4 0 0 1-1.985 2.585 1.9 1.9 0 0 0-.375-.51c-.35-.338-.818-.528-1.346-.581.644-.667 1.371-1.53 2.01-2.552" />
  <path
    fill-rule="evenodd"
    d="M35.043 20.143c-1.68 1.549-2.15 3.665-1.047 4.728s3.358.668 5.038-.881 2.15-3.666 1.047-4.728-3.358-.668-5.039.88m1.44 1.388c-.59.543-.897 1.126-.992 1.557-.053.239-.034.365-.017.42.058.018.192.039.446-.006.46-.08 1.085-.357 1.674-.9s.897-1.127.992-1.557c.053-.239.034-.366.017-.42-.058-.018-.192-.039-.447.006-.459.08-1.085.357-1.673.9m-.997 2.006.003.006-.005-.009zm-.044-.041.005.003-.003-.002-.004-.002q-.002-.001-.002-.002m.004.003-.003-.002zm3.146-2.906q-.001 0 .005.009zm.042.044.009.005z"
    clip-rule="evenodd"
  />
  <path
    fill-rule="evenodd"
    d="M18.012 12.474C19.335 11.518 21.298 11 24.01 11c2.698 0 4.66.472 5.982 1.364 1.38.93 1.962 2.247 2.005 3.624.042 1.323-.41 2.67-1.003 3.82a12.3 12.3 0 0 1-2.127 2.954c-.46.462-.79 1.228-.994 2.339-.2 1.098-.254 2.398-.267 3.808-.004.442-.004.899-.004 1.36 0 .974 0 1.97-.038 2.902-.057 1.378-.2 2.75-.594 3.899-.074.216-.23.543-.575.754a1.23 1.23 0 0 1-1.044.106 1.9 1.9 0 0 1-.543-.307 5 5 0 0 1-.354-.317l-.216-.216c-.092-.093-.17-.171-.25-.244a7 7 0 0 0-.305.259c-.084.073-.177.155-.292.252-.197.165-.56.468-.973.587-.243.07-.61.107-.981-.09a1.4 1.4 0 0 1-.64-.758c-.425-1.133-.646-2.534-.785-3.961-.112-1.162-.175-2.4-.236-3.592v-.002l-.043-.833c-.077-1.46-.169-2.8-.358-3.891-.2-1.146-.472-1.785-.74-2.055-.607-.61-1.283-1.598-1.794-2.722s-.903-2.482-.833-3.827c.072-1.384.637-2.751 2.004-3.739m5.789 24.22h-.002z"
    clip-rule="evenodd"
  />
</svg>
